!!!COM: Morgan, Leo
!!!CDT: 1919-1984
!!!OTL: National Anthem, Morocco
!!!ENC: Davis, Matthew J.
!!Vocal Line Only
**kern
*clefG2
*k[b-e-a-d-]
*f:
*M2/4
=1-
8.b-
16cc
8dd-
16dd-
16ee-
=2
2ff
=3
8.cc
16b-
8a-
16a-
16g
=4
2f
=5
8.f
16g
8a-
8a-
=6
16b-
16cc
16a-
16g
4f
=7
16cc
16dd-
16cc
16dd-
8cc
16cc
16dd-
=8
2cc
=9
8.f
16g
8a-
16a-
16f
=10
2cc
=11
8.b-
16a-
8.g
16f
=12
2en
=13
8.c
16dn
8en
16en
16c
=14
2f
=15
8en
16en
16dn
8dn
16dn
16c
=16
2c
=17
8f
16en
16f
4g
=18
8an
16an
16g
4b-
=19
16cc
16b-
16an
16g
4f
=20
16cc
16b-
16an
16g
4f
=21
8.b-
16an
8b-
8b-
=22
16cc
16ddn
16ddn
16cc
16cc
[16b-
16b-]
16an
=23
16an
16g
[8g
4g]
=24
8.b-
16cc
8dd-
16dd-
16ee-
=25
2cc
=26
8.b-
16a-
8g
16g
16f
=27
2en
=28
8.c
16dn
8en
16en
16c
=29
2f
=30
8en
16en
16dn
16dn
16c
16c
16c
=31
8c
16c
16c
8c
8cc
=32
8cc
16cc
16cc
8cc
16cc
16cc
=33
4ff
4r
==|!
*-
